X:40
T: An cuimhin leat an oíche úd?, S. 56
N: I0539
O: Irland
S: O'SULLIVAN, Donal: Song of the Irish]
R: Liebeslied]
M: 3/4
L: 1/16
K: A
E2F2G2 | A4A4B2A2 | G4A4B2c2d2 | e4d2B2A2B2 | G4E4
E2F2G2 | A4A4B2A2 | G4A4B2c2d2 | e4d3BA3B | A4A4
B2c2d2 | e4e4e4 | d4d4e2d2 | c4B4A2A2 | G4E4
E2F2G2 | A4A4B2A2 | G4A4B2c2 | e4d3BA3B | A4A4

